assets/img/svg/c.svg

<svg width="16" height="17" viewBox="0 0 16 17" fill="none" xmlns="http://www.w3.org/2000/svg">
<path d="M8 0.470703C3.58171 0.470703 0 4.05252 0 8.47095C0 12.8894 3.58171 16.4712 8 16.4712C12.4183 16.4712 16 12.8894 16 8.47095C16 4.05252 12.4183 0.470703 8 0.470703ZM8 14.9228C4.43445 14.9228 1.54839 12.0372 1.54839 8.47095C1.54839 4.90532 4.4339 2.01914 8 2.01914C11.5655 2.01914 14.4516 4.90474 14.4516 8.47095C14.4516 12.0366 11.5661 14.9228 8 14.9228ZM11.4629 11.6625C11.1528 11.9758 9.99423 12.9979 8.106 12.9979C5.44697 12.9979 3.57426 11.0164 3.57426 8.43111C3.57426 5.87774 5.51861 3.93416 8.08271 3.93416C9.87403 3.93416 10.9452 4.7929 11.2309 5.0561C11.298 5.11783 11.3411 5.20134 11.3525 5.29181C11.3639 5.38229 11.343 5.47389 11.2933 5.55037L10.7077 6.45727C10.5838 6.64921 10.3217 6.69218 10.1432 6.5515C9.86594 6.33291 9.11693 5.82445 8.15261 5.82445C6.59445 5.82445 5.63919 6.96416 5.63919 8.40782C5.63919 9.74944 6.50655 11.1076 8.16426 11.1076C9.21771 11.1076 9.9979 10.4935 10.2845 10.2294C10.4545 10.0727 10.723 10.0991 10.8593 10.2855L11.5001 11.1619C11.5547 11.2361 11.581 11.3273 11.5742 11.4191C11.5674 11.5109 11.5279 11.5973 11.4629 11.6625Z" fill="#857885"/>
</svg>

<svg width="16" height="17" fill="none" xmlns="http://www.w3.org/2000/svg"><path d="M8 .47a8 8 0 100 16 8 8 0 000-16zm0 14.453A6.448 6.448 0 011.548 8.47 6.448 6.448 0 018 2.019a6.448 6.448 0 016.452 6.452A6.448 6.448 0 018 14.923zm3.463-3.26c-.31.313-1.469 1.335-3.357 1.335-2.659 0-4.532-1.982-4.532-4.567 0-2.553 1.945-4.497 4.509-4.497 1.791 0 2.862.859 3.148 1.122a.386.386 0 01.062.494l-.585.907a.387.387 0 01-.565.095c-.277-.22-1.026-.728-1.99-.728-1.559 0-2.514 1.14-2.514 2.584 0 1.341.868 2.7 2.525 2.7 1.054 0 1.834-.615 2.12-.879a.387.387 0 01.575.057l.641.876a.386.386 0 01-.037.5z" fill="#857885"/></svg>
